X: 7034
T: Chilkat
R: polka
M: 2/4
K: Bminor
|:Bf fe/d/|ce Ac|FB dd|c/B/A B>A|
Bf fe/d/|ce Ac|ee fe/d/|1 cc B>A:|2 cc B2||
|:FB FB|dd cB/c/|ee fe/d/|cc B2|
FB FB|dd c/B/A|FB dd|1 c/B/A B2:|2 c/B/A B>A||

